X: 17
T:Morning Star
% Nottingham Music Database
S:Bledington
M:4/4
L:1/4
K:G
P:A
G/2A/2|"Em"B/2c/2B/2G/2 EF/2G/2|"D"A/2c/2A/2F/2 DG/2A/2|\
"Em"B/2c/2B/2G/2 "Am"EA/2F/2|"D7"DG "G"G:|
P:B
G/2A/2|"G"BB dd|"C"e/2g/2f/2e/2 "D7"d/2c/2B/2A/2|"G"G/2A/2B/2c/2 dd|\
"C"e/2g/2f/2e/2 "D"d3/2c/2|
"G""Em"BB/2c/2 dd|"C"e/2g/2f/2e/2 "G"d/2B/2G|"Am"A/2B/2c/2A/2 "D7"F/2G/2A/2F/2\
|"G"DG G:|<end>
<start>
